!!!!SEGMENT: 009_1et2-1a-W-002.krn
!!!COM: Chopin, Fryderyk
!!!OTL: Nocturne No. 2.
!!!OPS: Op. 9
!!!PTL: Trois Nocturnes
!!!PPR: Wessel
!!!PPP: London
!!!AGN: Nocturne
!!!NIFC-rismID: 1001004343
!!!NIFC-shelfmark: PL-Wbfc 3684/n
!!!OMD: Met: [quarter] = 132.
!!!SIC: No augmentation dot in MM
!!!OMD: Andante
**kern	**kern	**fing	**dynam
*part1	*part1	*	*part1
*staff2	*staff1	*	*
*clefF4	*clefG2	*	*
*k[b-e-a-]	*k[b-e-a-]	*	*
*E-:	*E-	*	*
*M12/8	*M12/8	*	*
*MM208	*MM208	*	*
!	!LO:TX:b:Bi:t=Dolce	!	!
8r	8b-	.	.
!	!LO:TX:b:Bi:t=espr.	!	!
=1	=1	=1	=1
*ped	*	*	*
!!mixed beam:problem
8EE-'<L/	[>4.gg	.	.
(>8e- 8G\	.	.	.
*Xped	*	*	*
8gJ 8e- 8B-)\	.	.	.
*ped	*	*	*
8E-'>L	(>8ggL]	.	.
(>8d 8A-	8ff	.	.
*Xped	*	*	*
8a-J 8d 8c-X)	8ggJ	.	.
*ped	*	*	*
!!mixed beam:problem
8EE-'<L/	4.ff	.	.
(>8e- 8G\	.	.	.
*Xped	*	*	*
8gJ 8e- 8B-)\	.	.	.
*ped	*	*	*
!!mixed beam:problem
8DD'<L/	4ee-)	.	.
(>8e- 8G\	.	.	.
*Xped	*	*	*
8gJ 8e- 8B-)\	(>8b-	.	.
=2	=2	=2	=2
*ped	*	*	*
!!mixed beam:problem
8CCL/	4gg	.	.
8en 8G\	.	.	<
*Xped	*	*	*
8gJ 8e 8B-\	8cc$	.	.
*ped	*	*	*
8CL	4ccc	.	[
8e 8G	.	.	.
*Xped	*	*	*
8b-J 8e 8c	8gg	.	.
*ped	*	*	*
!!mixed beam:problem
8FFL/	4.bb-	.	.
8d-X 8F\	.	.	.
*Xped	*	*	*
8eJ 8d- 8B-\	.	.	.
*ped	*	*	*
!!mixed beam:problem
8FFL/	4aa-	.	.
8c 8F\	.	.	.
*Xped	*	*	*
8fJ 8c 8A-\	8gg)	.	.
=3	=3	=3	=3
*ped	*	*	*
8BB-L	4.ff	.	.
8d 8F	.	.	.
*Xped	*	*	*
8a-J 8d 8B-	.	.	.
*ped	*	*	*
8BBnL	(>4gg	.	.
8f 8G	.	.	.
*Xped	*	*	*
8gJ 8f 8d	8dd)	.	.
*ped	*	*	*
8CL	4.ee-	.	.
8e- 8G	.	.	.
*Xped	*	*	*
8gJ 8e- 8c	.	.	.
8AAnL	4.cc	.	.
*ped	*	*	*
8e- 8G-X	.	.	.
*Xped	*	*	*
8g-XJ 8e- 8c	.	.	.
!!LO:LB:g=original
=4	=4	=4	=4
*ped	*	*	*
8BB-yL	(>8b-L	.	.
8e- 8F	8ddd)	.	.
*Xped	*	*	*
8a-J 8e- 8B-	(>8cccJ	.	.
*ped	*	*	*
!!mixed beam:problem
8BBB-L/	16bb-LL	.	.
.	16aa-	.	.
8d 8F\	16gg	.	.
.	16aa-)	.	f
*Xped	*	*	*
8a-J 8B-\	(>16cc	.	.
.	16ddJJ	.	<
*ped	*	*	*
!!mixed beam:problem
8EE-L/	4.ee-)	.	[
8e- 8Gny\	.	.	.
8gnyJ 8e- 8B-\	.	.	.
8E-L	4r	.	.
8e- 8G	.	.	.
8gJ 8e- 8B-	(>8b-	.	.
=5	=5	=5	=5
8E-'>L	4.gg	.	p
(>8e- 8G	.	.	.
*Xped	*	*	*
8gJ 8e- 8B-)	.	.	.
*ped	*	*	*
8E-'>L	16ffLL)	.	.
.	16gg	.	.
(>8d 8A-	16ffM	.	.
.	16een	.	.
*Xped	*	*	*
8a-J 8d 8c-X)	16ff	.	.
.	16ggJJ	.	.
*ped	*	*	*
8E-'>L	8ff	.	.
(>8e- 8G	[>4ee-X^<	.	.
*Xped	*	*	*
8gJ 8e- 8B-)	.	.	.
*ped	*	*	*
8D'>L	16ee-LL]	.	.
.	16ff	.	.
(>8e- 8G	16ee-M	.	.
.	16dd	.	.
*Xped	*	*	*
8gJ 8e- 8B-)	16ee-	.	.
.	16ffJJ	.	.
=6	=6	=6	=6
*	*	*	*^
*ped	*	*	*	*
8CL	16ggLL	.	<	.
.	(>16bn	.	.	.
8en 8G	16cc)	.	.	.
.	(>16dd^	.	.	.
8gJ 8e 8B-	16cc)	.	.	.
.	(>16ff^	.	.	<
8CL	16een)	.	.	.
.	(>16aa-^	.	.	.
8e 8G	16gg)	.	.	.
.	(>16ddd	.	.	.
*Xped	*	*	*	*
8b-J 8e 8c	16ccc	.	.	.
.	16ggJJ	.	[	.
*ped	*	*	*	*
!	!LO:TX:b:t=P:diminuendolike accent:problem	!	!	!
!!mixed beam:problem
8FFL/	4.bb-^<)	.	.	.
8d-X 8F\	.	.	.	.
*Xped	*	*	*	*
8eJ 8d- 8B-\	.	.	.	.
*ped	*	*	*	*
!!mixed beam:problem
8FFL/	4aa-	.	.	.
8c 8F\	.	.	.	.
*Xped	*	*	*	*
8fJ 8c 8A-\	8gg	.	.	.
*	*	*	*v	*v
!!LO:LB:g=original
=7	=7	=7	=7
*ped	*	*	*
8BB-L	4.ffTT	.	.
8d 8F	.	.	.
*Xped	*	*	*
8a-J 8d 8B-	.	.	.
.	16qqee-L/	.	.
.	16qqffJ	.	.
*ped	*	*	*
8BBnL	8ggL	.	.
8f 8G	(>8gg	.	.
*Xped	*	*	*
8gJ 8f 8d	8ddJ)	.	.
*ped	*	*	*
8CL	(>4.ee-	.	.
8e- 8G	.	.	.
*Xped	*	*	*
8gJ 8e- 8c	.	.	.
*ped	*	*	*
8AAnL	4.cc)	.	.
8e- 8G-X	.	.	.
*Xped	*	*	*
8g-XJ 8e- 8c	.	.	.
=8	=8	=8	=8
*ped	*	*	*
8BB-XL	(>8b-L	.	.
8e- 8G	8ddd)	.	.
*Xped	*	*	*
8a-J 8e- 8B-	(>8ccc'J	.	.
*ped	*	*	*
!!mixed beam:problem
8BBB-L/	16bb-'LL	.	.
.	16aa-'	.	.
8d 8F\	16gg'	.	.
.	16aa-'	.	.
.	16qqaa-/	.	.
*Xped	*	*	*
8a-J 8B-\	16cc	.	.
.	16ddJJ)	.	.
*ped	*	*	*
!!mixed beam:problem
8EE-L/	[>4.ee-	.	.
8e- 8G\	.	.	.
8gJ 8e- 8B-\	.	.	.
8E-L	8ee-L]	.	.
8e- 8G	(>8dd	.	.
*Xped	*	*	*
8gJ 8e- 8B-	8ee-J	.	.
=9	=9	=9	=9
*ped	*	*	*
8BB-'>L	4.ff)	.	p
(>8d 8F	.	.	.
8fJ 8d 8B-)	.	.	.
8BB-'>L	(>4gg^<	.	.
(>8d 8F	.	.	.
*Xped	*	*	*
8fJ 8d 8B-)	8ff)	.	.
*ped	*	*	*
8AAn'>L	(>4.ff	.	pp
(>8c 8F	.	.	.
8fJ 8c)	.	.	.
8AA'>L	4.cc)	.	.
(>8c 8F	.	.	.
*Xped	*	*	*
8fJ 8c)	.	.	.
!!LO:LB:g=original
=10	=10	=10	=10
*ped	*	*	*
!	!LO:TX:b:Bi:t=poco ritard.	!	!
8AA-XL	(>8ee-'L	.	.
8c 8E-	8ee-'	.	.
8e-J 8c 8A-	8ee-'J	.	.
!!mixed beam:problem
8AAA-L/	8ee-L)	.	.
8c-X 8E-\	(>16ddnL	.	.
.	16ee-	.	.
*Xped	*	*	*
8e-J 8c- 8A-\	16.ff	.	.
.	32ee-JJk	.	.
*ped	*	*	*
!!mixed beam:problem
8EE-'<L/	4.ee-)	.	.
(>8e- 8G\	.	.	.
8gJ 8e- 8B-)\	.	.	.
8E-'>L	4.b-	.	.
!	!LO:TX:b:Bi:t=A Tempo. 	!	!
(>8e- 8G	.	.	.
*Xped	*	*	*
8gJ 8e- 8B-)	.	.	.
=11	=11	=11	=11
*ped	*	*	*
!!mixed beam:problem
8EEnL/	(>4.bb-	.	f
8d-X 8E-\	.	.	.
*Xped	*	*	*
8gJ 8d- 8B-\	.	.	.
*ped	*	*	*
!!mixed beam:problem
8EEL/	4aan	.	.
8c 8E-\	.	.	.
*Xped	*	*	*
8gJ 8c 8B-\	8gg)	.	.
*ped	*	*	*
!!mixed beam:problem
8FFL/	(>4.ff 4.an	.	.
8eny 8F\	.	.	.
*Xped	*	*	*
8a-J 8eny 8c\	.	.	.
*ped	*	*	*
!!mixed beam:problem
8GGL/	4.dd 4.b-)	.	.
8d- 8G\	.	.	.
*Xped	*	*	*
8b-J 8d- 8B-\	.	.	.
=12	=12	=12	=12
*ped	*	*	*
!!mixed beam:problem
8CCL/	4.ee- 4.g/	.	p
8e- 8G\	.	.	.
*Xped	*	*	*
8gJ 8e- 8c\	.	.	.
*ped	*	*	*
!!mixed beam:problem
8FFL/	(<8dd'<L 8an/	.	.
8e- 8F\	8cc'< 8a	.	.
*Xped	*	*	*
8fJ 8e- 8c\	8dd'<J 8a	.	.
!	!	!	!LO:HP:a
8dL 8B-	8b-L 8f)	.	<
8d#X 8An	(<8bn'< 8f#X	.	.
!	!LO:TX:b:Bi:t=poco Rall.	!	!
8G#XJ	8b'<J 8en	.	.
8GnL	8cc'<L 8b-X 8e	.	.
8e-X 8c 8F	8cc'< 8an 8fn	.	.
8fJ 8B-	8dd'<J 8a-X)	.	[[
!!LO:LB:g=original
=13	=13	=13	=13
!	!LO:TX:b:Bi:t=A Tempo.	!	!
.	(<16qqg/LL	.	fz
.	16qqb-/	.	.
.	16qqee-)/JJ	.	p
*ped	*	*	*
!!mixed beam:problem
8EE-L/	4gg	.	.
8e- 8G\	.	.	.
*Xped	*	*	*
8gJ 8e- 8B-\	(>16an/LL	.	.
.	16b-JJ	.	.
8E-L	16cc-XLL	.	.
.	16b-	.	.
8d 8A-	16cc#X	.	.
.	16dd	.	.
8a-J 8d 8B-	16.gg	.	.
.	32ffJJk)	.	.
8E-L	4ff^<	.	.
8e- 8G	.	.	.
8gJ 8e- 8B-	[>8ee-	.	.
8DL	16ee-LL]	.	.
.	16ff	.	.
8e- 8G	16ee-M	.	.
.	16dd	.	.
8gJ 8e- 8B-	16ee-	.	.
.	(>16ffJJ	.	.
=14	=14	=14	=14
8CL	16ggLL)	.	<
.	(>16bn	.	.
8en 8G	16cc)	.	.
.	(>16dd-X	.	.
8gJ 8e 8B-	16cc)	.	.
.	(>16ffJJ	.	[
8CL	16eenLL)	.	<
.	(>16aa-	.	.
8e 8G	16gg)	.	.
.	(>16dddn	.	.
8b-J 8e 8c	16ccc	.	.
.	16ggJJ	.	.
!!mixed beam:problem
8FFL/	4.bb-X)	.	ff
8d-X 8F\	.	.	.
8eJ 8d- 8B-\	.	.	.
!	!LO:TX:b:t=P:diminuendolike accent:problem	!	!
!!mixed beam:problem
8FFL/	4aa-^<	.	.
8c 8F\	.	.	.
8fJ 8c 8A-\	8gg	.	.
=15	=15	=15	=15
8BB-L	4.ffTT	.	p
8d 8F	.	.	.
8a-J 8d 8B-	.	.	.
.	16qqee-/LL	.	.
.	16qqff/JJ	.	.
8BBnL	8gg'>L	.	.
8f 8G	(>8gg	.	>
8gJ 8f 8d	8ddJ)	.	]
8CL	(>4.ee-	.	<
8e- 8G	.	.	.
8gJ 8e- 8c	.	.	.
8AAnL	4.cc)	.	.
8e- 8G-X	.	.	[
8g-XJ 8e- 8c	.	.	.
!!LO:LB:g=original
=16	=16	=16	=16
8BB-L	(>8b-L	.	.
8e- 8F	8ddd)	.	.
8a-J 8e- 8B-	(>8ccc#X'J	.	.
*	*Xtuplet	*	*
!	!LO:TX:b:t=P:podwójna belka w całej grupie:problem	!	!
!!mixed beam:problem
8BBB-L/	104%3cccn'LL	4	.
.	104%3bbn'	4	.
.	104%3bb-X'	3	.
.	104%3aan'	4	.
.	104%3aa-X'	.	.
8d 8F\	.	.	.
.	104%3ff'	.	.
.	104%3dd'	.	.
.	104%3cc-X^>	.	.
.	104%3b-)	.	.
8a-J 8d 8B-\	.	.	.
.	104%3dd	.	.
.	104%3gg	4	.
.	104%3ff	3	.
.	104%3ee-JJ	1	.
*	*tuplet	*	*
!!mixed beam:problem
8EE-L/	[>4.ee-	+	.
8e- 8G\	.	.	.
8gJ 8B-\	.	.	.
8E-L	8ee-L]	.	.
8e- 8G	8dd	.	.
8gJ 8B-	8ee-J	.	.
=17	=17	=17	=17
8BB-L	(>4.ff	.	.
8d 8F	.	.	.
8fJ 8d 8B-	.	.	.
8BB-L	4gg	.	.
8d 8F	.	.	.
8fJ 8d 8B-	8ff)	.	.
8AAnL	(>4.ff	.	.
8c 8F	.	.	.
8fJ 8c	.	.	.
8AAL	4.cc)	.	.
8c 8F	.	.	.
8fJ 8c	.	.	.
=18	=18	=18	=18
8AA-XL	(>16ee-L	.	.
.	8ee-	4	.
8c 8E-	.	.	.
.	8ee-	.	.
8e-J 8c 8A-	.	.	.
.	16ee-J	.	.
!!mixed beam:problem
8AAA-L/	8ee-L	.	.
8c-X 8E-\	16ddL	.	.
.	16ee-	.	.
8e-J 8c- 8A-\	16.ff	.	.
.	32ee-JJk	.	.
!!mixed beam:problem
8EE-L/	4.ee-)	.	.
8e- 8G\	.	.	.
8gJ 8e- 8B-\	.	.	.
8E-L	4.b-/	.	<
8e- 8G	.	.	.
8gJ 8e- 8B-	.	.	[
!!LO:PB:g=original
=19	=19	=19	=19
!!mixed beam:problem
8EEnL/	(>4.bb-	.	f
8d-X 8E-\	.	.	.
8gJ 8d- 8B-\	.	.	.
!!mixed beam:problem
8EEL/	4aan)	.	.
8c 8En\	.	.	.
8gJ 8c 8B-\	8gg	.	.
!	!LO:TX:b:t=P:diminuendolike accent:problem	!	!
!!mixed beam:problem
8FFL/	(>4.ff^< 4.an	.	.
8eny 8F\	.	.	.
8anyJ 8eny 8c\	.	.	.
!!mixed beam:problem
8GGL/	4.dd 4.b-)	.	]
8d- 8G\	.	.	.
8b-J 8d- 8B-\	.	.	.
=20	=20	=20	=20
!!mixed beam:problem
8CCL/	4.ee- 4.g	.	p
8e- 8G\	.	.	.
8gJ 8e- 8c\	.	.	.
!!mixed beam:problem
8FFL/	(<8dd'<L 8an/	.	.
8e- 8F\	8cc'< 8a	.	.
8fJ 8e- 8c\	8dd'<J 8a)	.	.
!	!LO:TX:Bi:t=poco Rall.	!	!
!	!	!	!LO:HP:a
8dL 8B-	(<8b-'<L 8f	.	<
8d#X 8An	8bn'< 8f#X	.	.
8G#XJ	8b'<J 8en	.	.
8GnL	8cc'<L 8b-X 8e	.	.
8e-X 8c 8F	8cc'< 8an 8fn	.	.
8fJ 8B-	8dd'<J 8a-X)	.	[[
=21	=21	=21	=21
!	!LO:TX:b:Bi:t=A Tempo.	!	!
.	(<16qg/LL	.	fz
.	16qb-/	.	.
.	16qee-/JJ)	.	.
!!mixed beam:problem
8EE-'<L/	4gg	.	p
(>8e- 8G\	.	.	.
8gJ 8e- 8B-)\	(>16an/LL	.	.
.	16b-JJ	.	.
8E-'>L	16cc-X^>LL	.	.
.	16b-	.	.
(>8d 8A-	16cc#X	.	.
.	16dd	.	.
8a-J 8d 8B-)	16.gg^>	.	.
.	32ffJJk)	.	.
!	!LO:TX:b:t=P:diminuendolike accent:problem	!	!
8E-'>L	4ff^<	.	.
(>8e- 8G	.	.	.
8gJ 8e- 8B-)	[>8ee-	.	.
(>8DL	16ee-LL]	.	<
.	16ff	.	.
8e- 8G	16ee-T	.	.
.	16dd	.	.
8gJ 8e- 8B-)	16ee-	.	.
.	(>16ffJJ	.	[
!!LO:LB:g=original
=22	=22	=22	=22
8C'>L	16ggLL)	.	.
.	(>16bn	.	.
(>8en 8G	16ccny)	.	.
.	(>16dd-X^>	.	.
8gJ 8e 8B-)	16cc)	.	.
.	(>16ff^>JJ	.	.
8C'>L	16eenLL)	.	<
.	(>16aa-^>	.	.
(>8e 8G	16gg)	.	.
.	(>16dddn	.	.
8b-J 8e 8c)	16ccc	.	.
.	16ggJJ	.	[
.	16qqgg/	.	.
!!mixed beam:problem
8FFL/	4.bbny)	.	.
8d-X 8B- 8F\	.	.	.
8enJ 8d- 8B-\	.	.	.
!!mixed beam:problem
8FFL/	4aa-^<	.	.
8c 8F\	.	.	.
8fJ 8c 8A-\	8gg	.	.
=23	=23	=23	=23
8BB-L	4.ffT	.	.
8d 8F	.	.	.
8a-J 8d 8B-	.	.	.
.	(<16qqee-/LL	.	.
.	16qqff/JJ	.	.
8BBnL	8gg`>L)	.	.
8f 8G	(>8gg	.	.
8gJ 8f 8d	8ddJ)	.	.
8CL	(>4.ee-	.	.
8e- 8G	.	.	.
8gJ 8e- 8c	.	.	.
8AAnL	4.cc)	.	.
8e- 8G-X	.	.	.
8g-XJ 8e- 8c	.	.	.
=24	=24	=24	=24
8BB-L	(>16b-KL	.	.
.	8ddd	.	.
8e- 8F	.	.	.
.	16.ccc#X'>L	.	.
8a-J 8e- 8B-	.	.	.
.	16cccn'>	.	.
.	32bbn'>JJk	.	.
!!mixed beam:problem
8BBB-L/	16bb-X'>LL	.	>
.	16aan'>JJ)	.	.
8d 8F\	32aa-X`>LLL	.	.
.	(>32an	.	.
.	32b-	.	.
.	32bn	.	.
!	!LO:TX:b:t=P:w źródle triola zapisana nad 48gg 48ff 48ee-:problem	!	!
!	!LO:TX:a:t=P:note-head-side tuplet number:problem	!	!
8a-J 8d 8B-\	48cc	.	.
.	48cc#X	.	.
.	48dd	.	.
.	48gg	.	.
.	48ff	.	.
.	48ee-JJJ	.	.
*	*tuplet	*	*
!	!LO:TX:b:t=P:odwrócona główka półnuty:problem	!	!
!!mixed beam:problem
8EE-L/	2.ee-^>)	.	.
8e- 8G\	.	.	.
8gJ 8e- 8B-\	.	.	.
8E-L	.	.	.
8e- 8G	.	.	.
8gJ 8e- 8B-	.	.	.
!!LO:LB:g=original
=25	=25	=25	=25
*ped	*	*	*
!!mixed beam:problem
8EE-L/	4.ee-	.	p
8e- 8c-X 8A-\	.	.	.
8a-J 8e- 8c-\	.	.	.
8E-L	(>8ffL	.	.
*Xped	*	*	*
8e- 8c- 8A-	8ee-	.	.
8a-J 8e- 8c-	8ffJ	.	.
*ped	*	*	*
!	!LO:TX:b:t=P:odwrócona główka półnuty:problem	!	!
!!mixed beam:problem
8EE-L/	2.gg)	.	.
(>8e- 8G\	.	.	.
8gJ 8e- 8B-)\	.	.	.
8E-'>L	.	.	.
(>8e- 8G	.	.	.
*Xped	*	*	*
8gJ 8e- 8B-)	.	.	.
=26	=26	=26	=26
*ped	*	*	*
!!mixed beam:problem
8EE-L/	[>4.ee-	.	pp
8e- 8c-X 8A-\	.	.	.
8a-J 8e- 8c-\	.	.	.
8E-L	(>16ee-LL]	.	.
.	16ff	.	.
8e- 8c- 8A-	16ee-)	.	.
.	(>16ff	.	.
*Xped	*	*	*
8a-J 8e- 8c-	16ee-	.	.
!	!LO:TX:b:Bi:t=poco rubato.	!	!
.	16ffJJ	.	.
*ped	*	*	*
!!mixed beam:problem
8EE-L/	4gg)	.	.
8e- 8B- 8G\	.	.	.
8gJ 8e- 8B-\	(>8ee-$	.	.
8E-L	8eee-L)	4	.
8e- 8G	8ddd	4	.
!	!LO:TX:b:Bi:t=sempre	!	!
*Xped	*	*	*
8gJ 8e- 8B-	8cccJ	4	.
=27	=27	=27	=27
*ped	*	*	*
8E-L	4bb-	3	.
8d 8F	.	.	.
8a-J 8B-	(>8aan	4	pp
8E-L	8aa-XL)	.	.
8d 8F	(>8cc	.	.
*Xped	*	*	*
8a-J 8B-	8dd)J	.	.
*ped	*	*	*
8E-L	(>8ee-L	.	.
8e- 8G	16ffL	.	.
.	16ee-M	.	.
*Xped	*	*	*
8gJ 8B-	16dd	.	.
!	!LO:TX:b:Bi:t=dolcissimo.	!	!
.	16ee-)JJ	.	.
.	(<16qqee-/	.	.
*ped	*	*	*
8AAnL	8ggg'>L)	.	.
8e- 8F	(>16fff'>L	4	.
.	16eee-'>	3	.
*Xped	*	*	*
8fJ 8e- 8c	16ddd'>	4	.
.	16ccc'>JJ	4	.
!!LO:LB:g=original
=28	=28	=28	=28
*ped	*	*	*
8BB-L	8ccc-XL	4	.
8e- 8F	8bb-	3	.
*Xped	*	*	*
8a-J 8e- 8B-	8bb--J)	4	.
*ped	*	*	*
!!mixed beam:problem
8BBB-L/	(>16bb--LL	4	.
.	16aa-JJ)	3	.
8d 8F\	(>16aa-LL	3	.
.	16ggJJ)	4	.
*Xped	*	*	*
8a-J 8d 8B-\	(>16.ggLL	4	.
.	32ffJJk	3	.
*ped	*	*	*
!	!LO:TX:b:t=P:odwrócona główka półnuty:problem	!	!
!!mixed beam:problem
8EE-L/	2.ee-^<)	2	.
8e- 8G\	.	.	.
8gJ 8e- 8B-\	.	.	.
8E-L	.	.	.
8e- 8G	.	.	.
*Xped	*	*	*
8gJ 8e- 8B-	.	.	.
=29	=29	=29	=29
*	*Xtuplet	*	*
*ped	*	*	*
!!mixed beam:problem
8AAA-L/	[>4.ee-	.	p
8c-X 8A- 8E-\	.	.	.
8e-J 8c- 8A-\	.	.	.
8a-L 8e- 8c-	64%3ee-LL]	.	.
.	(>64%3ff	.	.
.	64%3ee-	.	.
8e- 8c- 8A-	.	.	.
.	64%3ff	.	.
.	64%3ee-)	.	.
.	(>64%3ff	.	<
*Xped	*	*	*
8c-J 8A- 8E-	.	.	.
.	64%3ee-	.	.
.	64%3ffJJ)	.	.
*ped	*	*	*
!!mixed beam:problem
8EE-L/	4.gg	.	[
8e- 8G\	.	.	.
8gJ 8e- 8B-\	.	.	.
8E-L	4r	.	.
8e- 8G	.	.	.
*Xped	*	*	*
8gJ 8e- 8B-	8r	.	.
*	*tuplet	*	*
=30	=30	=30	=30
!	!LO:TX:b:Bi:t=con forza.	!	!
*ped	*	*	*
!!mixed beam:problem
8AAA-L/	8ee-`>L\	.	.
8c-X 8A- 8E-\	(>16a-L	.	.
.	16b-	.	.
8e-J 8c- 8A-\	16a-T	.	.
.	16gJJ	.	.
8c-L 8A- 8E-	16a-LL	.	.
.	16cc-X	.	.
8e- 8c- 8A-	16ee-	.	.
.	16aa-	.	.
*Xped	*	*	*
8c-J 8A- 8E-	16eee-)	.	.
.	32r	.	.
.	(>32fffJJk	.	.
*ped	*	*	*
*	*8va	*	*
!!mixed beam:problem
8EE-L/	&(>8gggL	.	.
8e- 8G\	8eee-J&))	.	.
*Xped	*	*	*
!	!LO:TX:b:t=P:diminuendolike accent:problem	!	!
8gJ 8e- 8B-\	(>4eeee- 4eee-^<	.	.
*ped	*	*	*
8AAnL	.	.	.
!	!LO:TX:b:Bi:t=stretto.	!	!
8e- 8F	8ddddL 8ddd	.	.
*Xped	*	*	*
8fJ 8e- 8c-	8ccccnJ 8cccn)	.	.
!!LO:LB:g=original
=31	=31	=31	=31
*^	*	*	*
*ped	*	*	*	*
8BB-L	2.ryy	(>8cccc-XL 8ccc-\	.	.
8e- 8B- 8F	.	8bbb- 8bb-	.	.
*Xped	*	*	*	*
8a-J 8e- 8B-	.	8bbb--J 8bb--	.	.
*ped	*	*	*	*
8BBnL	.	8aaa-XL 8aa-X/	.	.
8f 8G	.	8ggg 8gg	.	.
*Xped	*	*	*	*
8gJ 8f 8d	.	8dddJ 8dd)	.	.
*ped	*	*	*	*
8C\L	4.ryy	8eee- 8ee-	.	.
8e- 8G	.	4.eeee- 4.eee-^<	.	.
*Xped	*	*	*	*
8gJ 8c	.	.	.	.
*ped	*	*	*	*
8ryy	8AAn`</	.	.	.
8e-/L 8c/	4F	8fffL 8ff/	.	.
*Xped	*	*	*	*
8fJ 8e- 8c	.	8ccccJ 8ccc	.	.
*v	*v	*	*	*
=32	=32	=32	=32
*	*	*	*^
*Xtuplet	*	*	*	*
*ped	*	*	*	*
!!mixed beam:problem
(>32%3BBB-L/	(>2.cccc-X (<2.ccc-X/	.	ff	.
32%3BB-\	.	.	.	.
!	!LO:TX:b:Bi:t=senza _ _ Tempo.:dur=10e:ext=ud:problem:text with extention lines	!	!	!
32%3F\	.	.	.	.
32%3A-\	.	.	.	.
32%3d\	.	.	.	.
32%3B-\	.	.	.	.
*clefG2	*	*	*	*
32%3f\	.	.	.	.
32%3a-J)\	.	.	.	.
!	!LO:TX:a:t=P:zapisana numeracja pod grupami szesnastek w prawej ręce:problem	!	!	!
!	!LO:TX:b:t=P:odwrócona główka półnuty:problem	!	!	!
!LO:TX:b:t=P:odwrócona główka półnuty:problem	!	!	!	!
2dd.;	2.bbb-;) 2.bb-)	.	.	.
.	16qqcccc-X/LL	.	.	.
.	16qqbbb-/	.	.	.
.	16qqccccn/	.	.	.
.	16qqaaan/JJ	.	.	.
.	16qqcccc-X/LL	.	<	.
.	16qqbbb-/	.	.	.
.	16qqccccn/	.	.	.
.	16qqaaa/JJ	.	.	.
.	16qqcccc-X/LL	.	.	.
.	16qqbbb-/	.	.	.
.	16qqccccn/	.	.	.
.	16qqaaa/JJ	.	.	.
.	16qqcccc-X/LL	.	.	.
.	16qqbbb-/	.	.	.
.	16qqccccn/	.	.	.
.	16qqaaa/JJ	.	.	.
.	16qqcccc-X/LL	.	.	.
.	16qqbbb-/	.	.	.
.	16qqccccn/	.	.	.
.	16qqaaa/JJ	.	.	.
.	16qqcccc-X/LL	.	.	.
.	16qqbbb-/	.	.	.
.	16qqccccn/	.	.	.
.	16qqaaa/JJ	.	.	.
.	16qqcccc-X/LL	.	.	.
.	16qqbbb-/	.	.	.
.	16qqccccn/	.	.	.
.	16qqaaa/JJ	.	[	.
!!LO:LB:g=original
.	16qqcccc-X/LL	.	<	.
.	16qqbbb-/	.	.	.
.	16qqccccn/	.	.	.
*clefF4	*	*	*	*
.	16qqaaa/JJ	.	.	.
.	16qqcccc-X/LL	.	.	.
.	16qqbbb-/	.	.	.
.	16qqccccn/	.	.	.
.	16qqaaa/JJ	.	.	.
.	16qqcccc-X/LL	.	.	.
.	16qqbbb-/	.	.	.
.	16qqccccn/	.	.	.
.	16qqaaa/JJ	.	.	.
.	16qqcccc-X/LL	.	>	.
.	16qqbbb-/	.	.	.
.	16qqccccn/	.	.	.
.	16qqaaa/JJ	.	.	.
.	16qqcccc-X/LL	.	.	.
.	16qqbbb-/	.	.	.
.	16qqccccn/	.	.	>
.	16qqaaa/JJ	.	.	.
.	16qqcccc-X/LL	.	.	.
.	16qqbbb-/	.	.	.
.	16qqccccn/	.	.	.
.	16qqaaa/JJ	.	]	.
!	!LO:TX:b:Bi:t=Rall.	!	!	!
.	16qqbbb-/LL	.	.	.
.	16qqaaan/	.	.	.
.	16qqaaa-/	.	.	.
.	16qqggg/JJ	.	.	.
.	(<16qqfff/LL	.	.	.
.	16qqddd/	.	.	.
!	!LO:TX:b:Bi:t=smorz.	!	!	!
.	16qqeee-/	.	.	.
.	16qqcccny/JJ	.	.	.
*	*X8va	*	*	*
!	!LO:TX:a:Bi:t=Loco	!	!	!
.	16qqbb-/LL	.	.	.
.	16qqaa-/	.	.	.
.	16qqcc/	.	.	.
.	16qqdd/JJ)	.	.	.
*tuplet	*	*	*	*
*	*	*	*v	*v
=33	=33	=33	=33
*^	*	*	*
*	*	*ped	*	*
!	!	!LO:TX:b:t=P:znak pedalizacji przed nutą:problem	!	!
!	!	!LO:TX:b:Bi:t=A Tempo.	!	!
!!mixed beam:problem
8ryy	(>8EE-L/	(>8ee-L 8g	.	.
4B-	8B-\	8b-	.	]
.	8BB-J/	8ggJ	.	.
8ryy	8E-L	8ee-L 8g	.	.
4B-	8B-	8b-	.	.
.	8BB-J)	8ggJ	.	.
!!mixed beam:problem
8ryy	(>8EE-L/	8ee-L 8g	.	.
4B-	8B-\	8b-	.	.
.	8BB-J/	8ggJ	.	.
8ryy	8E-L	8ee-L 8g	.	.
[>4B-	8B-	8b-	.	.
.	8BB-J)	8ggJ)	.	.
*v	*v	*	*	*
=34	=34	=34	=34
4.B-] 4.E-	4.ee- 4.g/	.	ppp
*clefG2	*	*	*
4.b- 4.e-	4.eee- 4.gg	.	.
*clefF4	*	*	*
*	*Xped	*	*
2BB-;< 2EE-	2e-; 2G	.	.
==	==	==	==
*-	*-	*-	*-
!!title: @{OTL}; @{OPS} @{ONM} publisher: @{PPR}
!!!RDF**kern: > = above
!!!RDF**kern: < = below
!!!RDF**dynam: > = "dim.", fontstyle= "bold-italic"
!!!RDF**dynam: < = "Cres.", fontstyle= "bold-italic"
!!!RDF**kern: N = linked
!!!ENC: Wojciech Jakubiak-Danek
!!!END: 2018-06-18
!!!EED: Tomasz Sierawski
!!!EST: 2018-06-19
!!!EED2: Wojciech Jakubiak-Danek
!!!EST2: 2019-08-15
!!!rism-genre: Nocturne
!!!rism-key: E-flat major
!!!rism-opus: op.  9, no. 2
!!!rism-title: Nocturne in E-flat major op.  9, no. 2
!!!rism-permalink: https://opac.rism.info/search?id=1001004343&View=rism
!!!rism-773a-OPR: 1001004317
!!!rism-parent-permalink: https://opac.rism.info/search?id=1001004317&View=rism
